X: 1081
T: Humârı Yok Bozulmaz
C: Hacı Ârif Bey
O: Turkey
F: http://compmusic.upf.edu/node/140
N: muhayyer--sarki--aksak--humari_yok--haci_arif_bey
N: makam= muhayyer
N: form= sarki
N: usul= aksak = 9/8
M: 9/8
L: 1/16
K: C _2/4B ^3/4f  
Q: 1/4=156
%%MIDI tuningsystem comma53
g2g4a2 a4 a4 z2 | d'c' c'_1/4bb3aa4a2 c'2ba  | \
w:  Hu mâ *  rı  yok   |  bo *  zul *  *  *  maz   | 
g2^fe f2g2 a2_1/4b2 c'2ba g2 | 
w:  *  *  *  mec lis_ i  *  mey  | 
z2 a_1/4bc'2 d'2c'2 d'2c'4(3bab  | \
w:  ha  | 
_1/4b2c'd' c'2d'2 c'bba a6 | 
w:  *  ne *  *  i  aş  | 
g2 a4 g=fed cBA4z2  | g2g4a2 a4 a4 z2 | \
w:  kın  *  SAZ  |  Hu mâ *  rı  yok   | 
d'c' c'_1/4bb3aa4a2 c'2ba  | 
w:  bo *  zul *  *  *  maz   | 
g2^fe f2g2 a2_1/4b2 c'2ba g2 | z2 a_1/4bc'2 d'2c'2 d'2c'4(3bab  | 
w:  *  *  *  mec lis_ i  *  mey  |  ha  | 
_1/4b2c'd' c'2d'2 c'bba a6 | g2 a6de ^fga4z2  | \
w:  *  ne *  *  i  aş  |  kın  *  SAZ  | 
g2a6 c'2_1/4b2 c'ba4 | 
w:  A yıl maz  *  haş  | 
_ba g6g2 ag=fe d4  | d2=fe d2cB B3/2A/G2 c2d4 | \
w:  re  *  dek  mes *  *  *  *  tâ  |  *  *  *  *  ne *  si  *  *  pey  | 
d2 c4 BAB2 A_1/4Bc2 d2e2  | 
w:  *  mâ  | 
e2dc _1/4B2c2 c_2/4BBA A6 | G2 A4 ^fgag fga4z2  | \
w:  *  ne_ *  *  i  aş  |  kın   *  SAZ  | 
g2a6 c'2_1/4b2 c'ba4 | 
w:  A yıl maz  *  haş  | 
_ba g6g2 ag=fe d4  | d2=fe d2cB B3/2A/G2 c2d4 | \
w:  re  *  dek  mes *  *  *  *  tâ  |  *  *  *  *  ne *  si  *  *  pey  | 
d2 c4 BAB2 A_1/4Bc2 d2e2  | 
w:  *  mâ  | 
e2dc _1/4B2c2 c_2/4BBA A6 | G2 A4 d2^c2 e2d4z2  | \
w:  *  ne_ *  *  i  aş  |  kın   *  SAZ  | 
^c2d2 c2_7/8B2 cBBA A6 | 
w:  Ha rîm_ *  *  i  *  *  *  Kâ  | 
d^c _7/8BAB2 cdcB BAA4z2  | d2d4^c2 =B2{c}Bc d6 | \
w:  be_ *  i  *  *  *  *  aş *  *  *  kı   |  ta vâf  *  ey  | 
d2 e4 d2g2 ^fga4(3_1/4bab  | 
w:  ler   | 
g2g4d'2 c'2_1/4b2 d'c'b2 ba | a6 a_1/4bag ^fga4z2  | \
w:  dil_ i  *  cib  |  ril   SAZ  | 
g2a6 c'2_1/4b2 c'ba4 | 
w:  A yıl maz  *  haş  | 
_ba g6g2 ag=fe d4  | d2=fe d2cB B3/2A/G2 c2d4 | \
w:  re  *  dek  mes *  *  *  *  tâ  |  *  *  *  *  ne *  si  *  *  pey  | 
d2 c4 BAB2 A_1/4Bc2 d2e2  | 
w:  *  mâ  | 
e2dc _1/4B2c2 c_2/4BBA A6 | G2 A4 ^fgag fga4z2  | \
w:  *  ne_ *  *  i  aş  |  kın   *  SAZ  | 
g2a6 c'2_1/4b2 c'ba4 | 
w:  A yıl maz  *  haş  | 
_ba g6g2 ag=fe d4  | d2=fe d2cB B3/2A/G2 c2d4 | \
w:  re  *  dek  mes *  *  *  *  tâ  |  *  *  *  *  ne *  si  *  *  pey  | 
d2 c4 BAB2 A_1/4Bc2 d2e2  | 
w:  *  mâ  | 
e2dc _1/4B2c2 c_2/4BBA A6 | G2 A4 |
w:  *  ne_ *  *  i  aş  |  kın    | 


